assets/img/svg/svg-symbols.svg

<svg class="c-icon-set" xmlns="http://www.w3.org/2000/svg">
<symbol id="arrow-down" viewBox="0 0 44 44"><title>arrow-down icon</title> <polygon fill-rule="evenodd" points="31.929 22.446 12 7 12 38" transform="rotate(90 21.964 22.5)"/> </symbol>
<symbol id="arrow" viewBox="0 0 44 44"><title>arrow icon</title> <polygon fill-rule="evenodd" points="44 22.976 35 16 35 22 0 22 0 24 35 24 35 30"/> </symbol>
<symbol id="dribbble" viewBox="0 0 44 44"><title>dribbble icon</title> <path fill-rule="evenodd" d="M22.5,1.5 C10.90625,1.5 1.5,10.90625 1.5,22.5 C1.5,34.1046875 10.90625,43.5 22.5,43.5 C34.09375,43.5 43.5,34.1046875 43.5,22.5 C43.5,10.90625 34.09375,1.5 22.5,1.5 L22.5,1.5 Z M22.5,39.9453125 C12.8640625,39.9453125 5.0546875,32.1359375 5.0546875,22.5 C5.0546875,12.8640625 12.8640625,5.0546875 22.5,5.0546875 C32.1359375,5.0546875 39.9453125,12.8640625 39.9453125,22.5 C39.9453125,32.1359375 32.1359375,39.9453125 22.5,39.9453125 Z M28.0015625,21.4828125 C30.5609375,21.2421875 33.56875,21.165625 36.4453125,21.2203125 C36.19375,18.4421875 35.1328125,15.89375 33.4921875,13.8265625 C31.6875,15.45625 29.3359375,16.9 26.56875,18.0921875 C27.071875,19.1859375 27.5421875,20.3234375 28.0015625,21.4828125 Z M31.184375,11.51875 C28.8,9.6265625 25.78125,8.5 22.5,8.5 C21.9421875,8.5 21.384375,8.5328125 20.8375,8.5984375 C22.346875,10.534375 23.7578125,12.7109375 25.059375,15.10625 C27.4328125,14.1 29.5,12.8859375 31.184375,11.51875 Z M17.0203125,9.615625 C13.290625,11.2015625 10.38125,14.3625 9.1453125,18.2671875 C13.640625,18.190625 17.8515625,17.5015625 21.5484375,16.375 C20.1703125,13.859375 18.6390625,11.5953125 17.0203125,9.615625 Z M36.390625,24.271875 C33.9515625,24.20625 31.359375,24.25 29.0734375,24.4359375 C29.521875,25.78125 29.959375,27.159375 30.33125,28.58125 C30.746875,30.178125 31.096875,31.7640625 31.38125,33.328125 C34.071875,31.1078125 35.93125,27.903125 36.390625,24.271875 Z M22.71875,22.5109375 C23.1453125,22.3359375 23.68125,22.1828125 24.2828125,22.040625 C23.9109375,21.1328125 23.50625,20.246875 23.1015625,19.3828125 C18.825,20.7609375 13.8484375,21.603125 8.521875,21.7125 C8.5109375,21.975 8.5,22.2375 8.5,22.5109375 C8.5,25.69375 9.5609375,28.625 11.34375,30.9765625 C14.0671875,27.421875 18.0046875,24.490625 22.71875,22.5109375 Z M25.409375,24.928125 C24.6546875,25.0921875 23.9984375,25.278125 23.50625,25.5078125 C19.4484375,27.3453125 16.0359375,30.0578125 13.61875,33.328125 C16.0359375,35.31875 19.13125,36.5 22.5,36.5 C24.5234375,36.5 26.4375,36.0734375 28.165625,35.3078125 C27.8703125,33.65625 27.509375,31.99375 27.071875,30.309375 C26.590625,28.4609375 26.021875,26.65625 25.409375,24.928125 Z"/> </symbol>
<symbol id="github" viewBox="0 0 44 44"><title>github icon</title> <path fill-rule="evenodd" d="M9.014464,32.6801944 C9.01557275,32.6766771 9.01662066,32.6731219 9.01760651,32.669529 C9.08023979,32.4412766 8.95497322,32.1369273 8.70444636,31.9847489 C8.45392575,31.8325705 8.1407656,31.9086521 8.07813232,32.1369197 C7.95287202,32.3651798 8.1407656,32.669529 8.39129247,32.8217074 C8.57570914,32.9337283 8.79406124,32.9220588 8.9214418,32.8170489 C8.86530031,32.9845026 8.93908873,33.2120517 9.11606579,33.3759091 C9.28679874,33.5866792 9.62827034,33.6920669 9.7990033,33.5339906 C9.96973625,33.428603 9.91282337,33.1124505 9.68517753,32.8489866 C9.46288178,32.64317 9.18631681,32.5378406 9.014464,32.6801944 Z M22.1761657,0.89053863 C10.0880504,0.89053863 0.316223754,10.6623652 0.316223754,22.7504805 C0.316223754,32.413732 6.57743171,40.5931115 15.2634998,43.4884679 C16.3492583,43.7056191 16.7473695,43.0179714 16.7473695,42.4389006 C16.7473695,41.9322128 16.7111802,40.1950007 16.7111802,38.3854038 C10.6309297,39.6883125 9.36421381,35.7795826 9.36421381,35.7795826 C8.38703043,33.2461473 6.93935,32.5946893 6.93935,32.5946893 C4.94879394,31.2555876 7.08411805,31.2555876 7.08411805,31.2555876 C9.29182798,31.4003557 10.4499723,33.4994905 10.4499723,33.4994905 C12.4043355,36.8291482 15.5530359,35.8881577 16.8197553,35.3090856 C17.0007127,33.8976017 17.5797849,32.9204183 18.1950499,32.377539 C13.3453259,31.8708527 8.24226239,29.9888718 8.24226239,21.5923362 C8.24226239,19.2036689 9.11086702,17.2493021 10.4861616,15.7292395 C10.2690114,15.1863602 9.50897824,12.9424574 10.7033155,9.93852863 C10.7033155,9.93852863 12.5491035,9.35945646 16.7111802,12.1824279 C18.4483931,11.7119344 20.330374,11.4585913 22.1761657,11.4585913 C24.0219537,11.4585913 25.9039383,11.7119344 27.6411511,12.1824279 C31.8032242,9.35945646 33.6490122,9.93852863 33.6490122,9.93852863 C34.8433495,12.9424574 34.0833164,15.1863602 33.8661661,15.7292395 C35.27765,17.2493021 36.1100654,19.2036653 36.1100654,21.5923362 C36.1100654,29.9888718 31.0069982,31.8346598 26.1210849,32.377539 C26.9173073,33.0651863 27.6049546,34.3680951 27.6049546,36.431037 C27.6049546,39.3625835 27.5687653,41.7150615 27.5687653,42.4389006 C27.5687653,43.0179714 27.9668765,43.7056191 29.052635,43.4884679 C37.7387067,40.5931115 43.9999002,32.413732 43.9999002,22.7504769 C44.0360931,10.6623652 34.2280844,0.89053863 22.1761657,0.89053863 Z M10.6004794,34.7215152 C10.3909409,34.8610874 10.0766305,34.7215152 9.91947798,34.4889042 C9.7099395,34.2562885 9.7099395,33.9306293 9.91947798,33.8375812 C10.1290165,33.6980136 10.4433216,33.8375812 10.6004794,34.0701969 C10.8100126,34.3028125 10.8100126,34.5819476 10.6004794,34.7215152 Z M11.6927605,35.9221188 C11.5618885,36.1036083 11.2565148,36.0582348 10.9947708,35.8313717 C10.776648,35.6045132 10.6894014,35.2869075 10.8638989,35.150787 C10.9947708,34.9692974 11.3001402,35.0146709 11.5618885,35.241534 C11.780007,35.423019 11.8236324,35.7406292 11.6927605,35.9221188 Z M13.2433893,36.6546155 C13.2040546,36.9231423 12.9287195,37.0305497 12.6533844,36.9231423 C12.3780453,36.8157294 12.2207143,36.4934963 12.2600451,36.2786813 C12.2993798,36.0101546 12.5747149,35.9027472 12.8500501,36.0101546 C13.1253891,36.1175675 13.2827201,36.3860888 13.2433893,36.6546155 Z M14.9920891,36.7477286 C14.9920891,37.0242029 14.7624048,37.2453812 14.4944346,37.2453812 C14.2264683,37.2453812 13.9967839,37.0242029 13.9967839,36.7477286 C13.9967839,36.4712544 14.2264683,36.250076 14.4944346,36.250076 C14.7624009,36.250076 14.9920891,36.4712544 14.9920891,36.7477286 Z M16.6834764,36.4153634 C16.722888,36.6860704 16.5258339,36.9567827 16.2499646,37.0109263 C15.9740873,37.0650644 15.7376256,36.9026392 15.698214,36.6319322 C15.6588063,36.3612199 15.8558564,36.0905075 16.1317298,36.0363694 C16.4076031,35.9822204 16.6440687,36.1446511 16.6834764,36.4153634 Z"/> </symbol>
<symbol id="home" viewBox="0 0 44 44"><title>home icon</title> <polygon fill-rule="evenodd" points="18.8 38 18.8 26.706 26.2 26.706 26.2 38 35.45 38 35.45 22.941 41 22.941 22.5 6 4 22.941 9.55 22.941 9.55 38"/> </symbol>
<symbol id="medium" viewBox="0 0 44 44"><title>medium icon</title> <g fill-rule="evenodd" transform="translate(1 5)"> <path fill-opacity=".6" d="M19.4193548,14.4760002 L27.8023987,0.664870256 C28.1864688,0.0645312729 29.0319756,-0.172812045 29.6813029,0.134338132 L42.6181107,6.37507128 C42.7010035,6.41695539 42.7313977,6.51468499 42.6830434,6.58449185 L28.4354839,28.7 L19.4193548,14.4760002 Z"/> <path fill-opacity=".4" d="M28.4354839,28.7 L40.5143055,34.5542778 C41.8240122,35.1965009 42.8864219,34.7497371 42.8864219,33.5769817 L42.7364535,6.50999947 L28.4354839,28.7 Z"/> <path fill-opacity=".7" d="M1.14890982,1.2675416 L14.2667003,21.8270575 L28.4354839,28.7 L14.2984759,6.38438431 C14.2777527,6.35227316 14.2487402,6.32574656 14.2155831,6.30899291 L1.96678576,0.403332691 C0.880889664,-0.121614883 0.512016567,0.267907387 1.14890982,1.2675416 Z"/> <path d="M14.2755271,33.5845916 C14.2755271,34.7573467 13.3871922,35.2878789 12.2999146,34.7629313 L1.18536748,29.4017646 C0.533277214,29.0890299 0,28.2569321 0,27.5518828 L0,1.27378907 C0,0.335584894 0.7114968,-0.0888408053 1.58187153,0.331396483 L14.199542,6.41855453 C14.2465146,6.43949659 14.2755271,6.48556912 14.2755271,6.53583005 L14.2755271,33.5790069 L14.2755271,33.5845916 L14.2755271,33.5845916 L14.2755271,33.5845916 Z"/> </g> </symbol>
<symbol id="notifications" viewBox="0 0 44 44"><title>notifications icon</title> <path d="M14.5,35 C16.49375,35 18.125,33.3846154 18.125,31.4102564 L10.875,31.4102564 C10.875,33.3846154 12.488125,35 14.5,35 Z M25.375,24.2307692 L25.375,15.2564103 C25.375,9.74615385 22.4025,5.13333333 17.21875,3.91282051 L17.21875,2.69230769 C17.21875,1.2025641 16.004375,0 14.5,0 C12.995625,0 11.78125,1.2025641 11.78125,2.69230769 L11.78125,3.91282051 C6.579375,5.13333333 3.625,9.72820513 3.625,15.2564103 L3.625,24.2307692 L0,27.8205128 L0,29.6153846 L29,29.6153846 L29,27.8205128 L25.375,24.2307692 Z" transform="translate(8 5)"/> </symbol>
<symbol id="twitter" viewBox="0 0 44 44"><title>twitter icon</title> <path fill-rule="evenodd" d="M42.9375177,9.28456434 C41.3956297,9.97489773 39.7468719,10.4351098 38.0217785,10.6345329 C39.7926733,9.57603605 41.151371,7.88857148 41.7925444,5.87896769 C40.1285348,6.86075745 38.2965715,7.58175835 36.3425017,7.9652786 C34.7853314,6.29315545 32.5564534,5.25 30.0985991,5.25 C25.3660502,5.25 21.5342157,9.1004826 21.5342157,13.8560478 C21.5342157,14.5310398 21.6105514,15.1906903 21.7632073,15.8196427 C14.6338649,15.4514792 8.32889839,12.0305258 4.10014317,6.8300746 C3.36736091,8.10335142 2.93990586,9.57603605 2.93990586,11.1561107 C2.93990586,14.1475195 4.45126718,16.7707649 6.75647315,18.3201567 C5.35197559,18.2741324 4.03907773,17.8906275 2.87884194,17.2463184 L2.87884194,17.3537084 C2.87884194,21.5263302 5.82523049,24.9933017 9.74866002,25.7910098 C9.03114641,25.9904375 8.26783295,26.0978214 7.48925389,26.0978214 C6.93966796,26.0978214 6.40534915,26.0364603 5.87102881,25.9444163 C6.95493355,29.3653621 10.1303167,31.8505316 13.870553,31.9272341 C10.9394285,34.2283188 7.24499364,35.6089687 3.22996595,35.6089687 C2.54298384,35.6089687 1.85600187,35.5629475 1.18428626,35.486245 C4.97032039,37.9253933 9.47386858,39.3520652 14.3132737,39.3520652 C30.0680649,39.3520652 38.6782343,26.235885 38.6782343,14.8685358 C38.6782343,14.500357 38.6629672,14.1168367 38.6477001,13.7486732 C40.3422593,12.5214207 41.7925444,11.0027118 42.9375177,9.28456434 L42.9375177,9.28456434 Z"/> </symbol>
</svg>

<svg xmlns="http://www.w3.org/2000/svg" class="c-icon-set">
    <symbol id="arrow-down" viewBox="0 0 44 44">
      <title>arrow-down</title><path d="M22.018 32.464l15.446-19.928h-31z" fill-rule="evenodd"/>
    </symbol>
    <symbol id="arrow" viewBox="0 0 44 44">
      <title>arrow icon</title>
      <path fill-rule="evenodd" d="M44 22.976L35 16v6H0v2h35v6z"/>
    </symbol>
    <symbol id="dribbble" viewBox="0 0 44 44">
      <title>dribbble icon</title>
      <path fill-rule="evenodd" d="M22.5 1.5c-11.594 0-21 9.406-21 21 0 11.605 9.406 21 21 21s21-9.395 21-21c0-11.594-9.406-21-21-21zm0 38.445c-9.636 0-17.445-7.81-17.445-17.445 0-9.636 7.81-17.445 17.445-17.445 9.636 0 17.445 7.81 17.445 17.445 0 9.636-7.81 17.445-17.445 17.445zm5.502-18.462c2.559-.24 5.567-.317 8.443-.263a13.889 13.889 0 0 0-2.953-7.393c-1.804 1.63-4.156 3.073-6.923 4.265a68.6 68.6 0 0 1 1.433 3.39zm3.182-9.964A13.921 13.921 0 0 0 22.5 8.5c-.558 0-1.116.033-1.663.098 1.51 1.936 2.92 4.113 4.222 6.508 2.374-1.006 4.441-2.22 6.125-3.587zM17.02 9.616a14.037 14.037 0 0 0-7.875 8.651c4.496-.076 8.707-.765 12.403-1.892a44.346 44.346 0 0 0-4.528-6.76zm19.37 14.656c-2.438-.066-5.03-.022-7.317.164a65.516 65.516 0 0 1 1.258 4.145 65.093 65.093 0 0 1 1.05 4.747 14.04 14.04 0 0 0 5.01-9.056zM22.72 22.51c.426-.175.962-.328 1.564-.47a59.055 59.055 0 0 0-1.181-2.658c-4.277 1.378-9.254 2.22-14.58 2.33-.011.262-.022.524-.022.798 0 3.183 1.06 6.114 2.844 8.466 2.723-3.555 6.66-6.486 11.375-8.466zm2.69 2.417c-.754.164-1.41.35-1.903.58-4.058 1.837-7.47 4.55-9.887 7.82A13.915 13.915 0 0 0 22.5 36.5c2.023 0 3.938-.427 5.666-1.192a66.189 66.189 0 0 0-1.094-4.999 65.734 65.734 0 0 0-1.663-5.38z"/>
    </symbol>
    <symbol id="github" viewBox="0 0 44 44">
      <title>github icon</title>
      <path fill-rule="evenodd" d="M9.014 32.68a.296.296 0 0 0 .004-.01c.062-.229-.063-.533-.314-.685-.25-.152-.563-.076-.626.152-.125.228.063.533.313.685.185.112.403.1.53-.005-.056.168.018.395.195.559.17.21.512.316.683.158.17-.105.114-.422-.114-.685-.222-.206-.499-.311-.67-.169zM22.176.89C10.088.89.316 10.663.316 22.75c0 9.664 6.261 17.843 14.947 20.738 1.086.218 1.484-.47 1.484-1.05 0-.506-.036-2.243-.036-4.053-6.08 1.303-7.347-2.605-7.347-2.605-.977-2.534-2.425-3.185-2.425-3.185-1.99-1.34.145-1.34.145-1.34C9.292 31.4 10.45 33.5 10.45 33.5c1.954 3.33 5.103 2.39 6.37 1.81.18-1.411.76-2.389 1.375-2.931-4.85-.507-9.953-2.39-9.953-10.786 0-2.388.869-4.343 2.244-5.863-.217-.543-.977-2.787.217-5.79 0 0 1.846-.58 6.008 2.243 1.737-.47 3.62-.723 5.465-.723 1.846 0 3.728.253 5.465.723C31.803 9.36 33.65 9.94 33.65 9.94c1.194 3.003.434 5.247.217 5.79 1.412 1.52 2.244 3.475 2.244 5.863 0 8.397-5.103 10.243-9.989 10.786.796.687 1.484 1.99 1.484 4.053 0 2.932-.036 5.284-.036 6.008 0 .579.398 1.267 1.484 1.05C37.739 40.592 44 32.413 44 22.75 44.036 10.662 34.228.89 22.176.89zM10.6 34.723c-.21.14-.523 0-.68-.233-.21-.233-.21-.558 0-.651.209-.14.523 0 .68.232.21.233.21.512 0 .652zm1.093 1.2c-.131.182-.436.136-.698-.09-.218-.227-.306-.545-.131-.681.13-.182.436-.136.698.09.218.182.262.5.13.681zm1.55.733c-.039.268-.314.376-.59.268-.275-.107-.432-.43-.393-.644.04-.269.315-.376.59-.269a.605.605 0 0 1 .393.645zm1.75.093c0 .276-.23.497-.499.497a.501.501 0 0 1-.497-.497c0-.277.23-.498.497-.498.268 0 .498.221.498.498zm1.69-.333a.545.545 0 0 1-.433.596c-.276.054-.512-.108-.552-.38a.545.545 0 0 1 .434-.595c.276-.054.512.109.551.38z"/>
    </symbol>
    <symbol id="home" viewBox="0 0 44 44">
      <title>home icon</title>
      <path fill-rule="evenodd" d="M18.8 38V26.706h7.4V38h9.25V22.941H41L22.5 6 4 22.941h5.55V38z"/>
    </symbol>
    <symbol id="medium" viewBox="0 0 44 44">
      <title>medium icon</title>
      <g fill-rule="evenodd"><path fill-opacity=".6" d="M20.42 19.476l8.382-13.811c.384-.6 1.23-.838 1.88-.53l12.936 6.24c.083.042.113.14.065.21L29.435 33.7 20.42 19.476z"/><path fill-opacity=".4" d="M29.435 33.7l12.08 5.854c1.309.643 2.371.196 2.371-.977l-.15-27.067-14.3 22.19z"/><path fill-opacity=".7" d="M2.149 6.268l13.118 20.56L29.435 33.7 15.298 11.384a.216.216 0 0 0-.082-.075L2.966 5.403c-1.085-.525-1.454-.135-.817.865z"/><path d="M15.276 38.585c0 1.172-.889 1.703-1.976 1.178L2.185 34.402C1.533 34.089 1 33.257 1 32.552V6.274c0-.938.711-1.363 1.582-.943L15.2 11.42c.047.02.076.067.076.117v27.049z"/></g>
    </symbol>
    <symbol id="twitter" viewBox="0 0 44 44">
      <title>twitter icon</title>
      <path fill-rule="evenodd" d="M42.938 9.285c-1.542.69-3.191 1.15-4.916 1.35a8.594 8.594 0 0 0 3.77-4.756 17.26 17.26 0 0 1-5.45 2.086A8.518 8.518 0 0 0 30.1 5.25c-4.733 0-8.565 3.85-8.565 8.606 0 .675.077 1.335.23 1.964-7.13-.369-13.435-3.79-17.664-8.99a8.64 8.64 0 0 0-1.16 4.326 8.603 8.603 0 0 0 3.816 7.164 8.527 8.527 0 0 1-3.877-1.074v.108a8.597 8.597 0 0 0 6.87 8.437c-.718.2-1.481.307-2.26.307a9.48 9.48 0 0 1-1.618-.154c1.084 3.421 4.26 5.907 8 5.983a17.179 17.179 0 0 1-12.687 3.56 24.162 24.162 0 0 0 13.13 3.865c15.754 0 24.364-13.116 24.364-24.483 0-.369-.015-.752-.03-1.12a17.488 17.488 0 0 0 4.29-4.464z"/>
    </symbol></svg>
